src/assets/tokens/STETH.svg

<svg fill="none" height="512" width="512" xmlns="http://www.w3.org/2000/svg"><g fill="#00a3ff"><path d="m169.773 240.488-2.341 3.591c-26.398 40.495-20.502 93.529 14.174 127.506 20.401 19.988 47.137 29.984 73.875 29.986z"/><path d="m255.483 289.445-85.709-48.957 85.709 161.083zm85.792-48.957 2.341 3.591c26.398 40.495 20.502 93.529-14.174 127.506-20.4 19.988-47.137 29.984-73.875 29.986z" opacity=".6"/><path d="m255.566 289.445 85.708-48.957-85.708 161.083zm.018-109.355v84.437l73.828-42.191z" opacity=".2"/><path d="m255.584 180.09-73.881 42.245 73.881 42.192z" opacity=".6"/><path d="m255.584 109.054-73.881 113.284 73.881-42.364z"/><path d="m255.584 179.975 73.884 42.366-73.884-113.341z" opacity=".6"/></g></svg>

<svg xmlns="http://www.w3.org/2000/svg" width="512" height="512" viewBox="0 0 512 512" fill="none">
<path d="M169.773 240.488L167.432 244.079C141.034 284.574 146.93 337.608 181.606 371.585C202.007 391.573 228.743 401.569 255.481 401.571C255.481 401.571 255.481 401.571 169.773 240.488Z" fill="#00A3FF"/>
<path opacity="0.6" d="M255.483 289.445L169.774 240.488C255.483 401.571 255.483 401.571 255.483 401.571C255.483 366.489 255.483 326.289 255.483 289.445Z" fill="#00A3FF"/>
<path opacity="0.6" d="M341.275 240.488L343.616 244.079C370.014 284.574 364.118 337.608 329.442 371.585C309.042 391.573 282.305 401.569 255.567 401.571C255.567 401.571 255.567 401.571 341.275 240.488Z" fill="#00A3FF"/>
<path opacity="0.2" d="M255.566 289.445L341.274 240.488C255.566 401.571 255.566 401.571 255.566 401.571C255.566 366.489 255.566 326.289 255.566 289.445Z" fill="#00A3FF"/>
<path opacity="0.2" d="M255.584 180.09V264.527L329.412 222.336L255.584 180.09Z" fill="#00A3FF"/>
<path opacity="0.6" d="M255.584 180.09L181.703 222.335L255.584 264.527V180.09Z" fill="#00A3FF"/>
<path d="M255.584 109.054L181.703 222.338L255.584 179.974V109.054Z" fill="#00A3FF"/>
<path opacity="0.6" d="M255.584 179.975L329.468 222.341L255.584 109V179.975Z" fill="#00A3FF"/>
</svg>
